src/img/icons/icon-time.svg

<svg width="20" height="20" viewBox="0 0 20 20" fill="none" xmlns="http://www.w3.org/2000/svg">
<path fill-rule="evenodd" clip-rule="evenodd" d="M17.8954 5.26146C17.4813 5.46162 17.3079 5.95982 17.5083 6.37466C18.0558 7.50558 18.3333 8.72428 18.3333 9.9994C18.3333 14.5939 14.5949 18.3323 9.99992 18.3323C5.405 18.3323 1.66668 14.5939 1.66668 9.9994C1.66668 5.40404 5.405 1.66612 9.99992 1.66612C11.9041 1.66612 13.6927 2.28756 15.1732 3.46318C15.5324 3.75034 16.0575 3.69034 16.3442 3.32948C16.6307 2.96942 16.5708 2.44504 16.2103 2.15908C14.4575 0.76598 12.252 -0.00126 9.99992 -0.00126C4.48626 -0.00126 -4e-05 4.48536 -4e-05 9.9994C-4e-05 15.5126 4.48626 19.9988 9.99992 19.9988C15.5137 19.9988 20 15.5126 20 9.9994C20 8.47096 19.6664 7.00738 19.0084 5.6485C18.8083 5.23366 18.3082 5.06088 17.8954 5.26146ZM9.99992 3.33188C9.53998 3.33188 9.16668 3.70564 9.16668 4.16558V9.9994C9.16668 10.4585 9.53998 10.8323 9.99992 10.8323H14.1666C14.6266 10.8323 15 10.4585 15 9.9994C15 9.53904 14.6266 9.1657 14.1666 9.1657H10.8333V4.16558C10.8333 3.70564 10.46 3.33188 9.99992 3.33188Z" fill="#8D8D8D"/>
</svg>

<svg width="20" height="20" fill="none" xmlns="http://www.w3.org/2000/svg"><path fill-rule="evenodd" clip-rule="evenodd" d="M17.895 5.261a.833.833 0 00-.387 1.114c.548 1.13.825 2.35.825 3.624 0 4.595-3.738 8.333-8.333 8.333-4.595 0-8.333-3.738-8.333-8.333 0-4.595 3.738-8.333 8.333-8.333 1.904 0 3.693.622 5.173 1.797A.832.832 0 1016.21 2.16 10.017 10.017 0 0010 0C4.486 0 0 4.486 0 10s4.486 10 10 10 10-4.486 10-10a9.9 9.9 0 00-.992-4.35.833.833 0 00-1.113-.388zM10 3.331a.834.834 0 00-.833.835v5.833c0 .46.373.833.833.833h4.167a.834.834 0 000-1.666h-3.334v-5A.834.834 0 0010 3.332z" fill="#8D8D8D"/></svg>
